Yaru++/mimetypes/symbolic/application-certificate-symbolic.svg

<svg height="16" width="16" xmlns="http://www.w3.org/2000/svg"><path d="m7.106523-.000002-.776164 1.001621-1.232964-.280647-.334659 1.220036-1.247029.213716.15852 1.255269-1.070879.675156.628205 1.099077-.731553 1.033363.999272.775019-.278292 1.234108 1.220039.333485.213711 1.24703.488482-.06223v6.254999l2.761844-2.009127 2.761849 2.009127v-5.911109l.05871.01409.334657-1.220036 1.247032-.214884-.159692-1.255269 1.070874-.674018-.627061-1.100277.730351-1.032159-.999273-.776165.279465-1.232962-1.220035-.334661-.213714-1.245889-1.2552708.15852-.6751582-1.070875-1.099073.627061zm.804363 2.58918a3.0060566 3.0060566 0 0 1 3.006056 3.006053 3.0060566 3.0060566 0 0 1 -3.006056 3.006058 3.0060566 3.0060566 0 0 1 -3.006059-3.006058 3.0060566 3.0060566 0 0 1 3.006059-3.006053z" fill="#808080" fill-rule="evenodd" stroke-width=".601211"/></svg>

<?xml version="1.0" encoding="UTF-8" standalone="no"?>
<svg
   xmlns:dc="http://purl.org/dc/elements/1.1/"
   xmlns:cc="http://creativecommons.org/ns#"
   xmlns:rdf="http://www.w3.org/1999/02/22-rdf-syntax-ns#"
   xmlns:svg="http://www.w3.org/2000/svg"
   xmlns="http://www.w3.org/2000/svg"
   xmlns:sodipodi="http://sodipodi.sourceforge.net/DTD/sodipodi-0.dtd"
   xmlns:inkscape="http://www.inkscape.org/namespaces/inkscape"
   width="16"
   height="16"
   version="1.1"
   id="svg10"
   sodipodi:docname="application-certificate-symbolic.svg"
   inkscape:version="0.92.4 (5da689c313, 2019-01-14)">
  <metadata
     id="metadata16">
    <rdf:RDF>
      <cc:Work
         rdf:about="">
        <dc:format>image/svg+xml</dc:format>
        <dc:type
           rdf:resource="http://purl.org/dc/dcmitype/StillImage" />
      </cc:Work>
    </rdf:RDF>
  </metadata>
  <defs
     id="defs14" />
  <sodipodi:namedview
     pagecolor="#ffffff"
     bordercolor="#666666"
     borderopacity="1"
     objecttolerance="10"
     gridtolerance="10"
     guidetolerance="10"
     inkscape:pageopacity="0"
     inkscape:pageshadow="2"
     inkscape:window-width="1920"
     inkscape:window-height="1016"
     id="namedview12"
     showgrid="false"
     inkscape:zoom="14.75"
     inkscape:cx="8"
     inkscape:cy="8"
     inkscape:window-x="0"
     inkscape:window-y="27"
     inkscape:window-maximized="1"
     inkscape:current-layer="svg10" />
  <path
     inkscape:connector-curvature="0"
     style="fill:#808080;fill-rule:evenodd;stroke-width:0.60121143;fill-opacity:1"
     d="M 7.106523,-2e-6 6.330359,1.001619 5.097395,0.720972 4.762736,1.941008 3.515707,2.154724 3.674227,3.409993 2.603348,4.085149 3.231553,5.184226 2.5,6.217589 3.499272,6.992608 3.22098,8.226716 4.441019,8.560201 4.65473,9.807231 5.143212,9.745001 V 16 L 7.905056,13.990873 10.666905,16 v -5.911109 l 0.05871,0.01409 L 11.060272,8.882945 12.307304,8.668061 12.147612,7.412792 13.218486,6.738774 12.591425,5.638497 13.321776,4.606338 12.322503,3.830173 12.601968,2.597211 11.381933,2.26255 11.168219,1.016661 9.9129482,1.175181 9.23779,0.104306 8.138717,0.731367 Z m 0.804363,2.58918 A 3.0060566,3.0060566 0 0 1 10.916942,5.595231 3.0060566,3.0060566 0 0 1 7.910886,8.601289 3.0060566,3.0060566 0 0 1 4.904827,5.595231 3.0060566,3.0060566 0 0 1 7.910886,2.589178 Z"
     id="path30" />
</svg>
